home/icons/dracula-icons-main/22/actions/office-chart-ring.svg

<svg xmlns="http://www.w3.org/2000/svg" viewBox="0 0 22 22">
  <defs id="defs3051">
    <style type="text/css" id="current-color-scheme">
      .ColorScheme-Text {
        color:#FFFFFF;
      }
      .ColorScheme-Highlight {
        color:#3daee9;
      }
      </style>
  </defs>
 <path 
     style="fill:currentColor;fill-opacity:1;stroke:none" 
     d="M 10 3.0683594 C 6.0443281 3.5584193 3 6.907464 3 11 C 3 15.092536 6.0443281 18.441581 10 18.931641 L 10 17.921875 C 6.6006429 17.438059 4 14.537215 4 11 C 4 7.4627852 6.6006429 4.5619415 10 4.078125 L 10 3.0683594 z M 12 3.0683594 L 12 4.078125 C 15.399357 4.5619415 18 7.4627852 18 11 C 18 14.537215 15.399357 17.438059 12 17.921875 L 12 18.931641 C 15.955672 18.441581 19 15.092536 19 11 C 19 6.907464 15.955672 3.5584193 12 3.0683594 z M 11 5 C 7.676 5 5 7.676 5 11 C 5 14.324 7.676 17 11 17 C 14.324 17 17 14.324 17 11 C 17 10.118224 16.807518 9.283967 16.46875 8.53125 L 15.6875 9.3125 C 15.877228 9.8417746 16 10.403857 16 11 C 16 13.77 13.77 16 11 16 C 8.23 16 6 13.77 6 11 C 6 8.23 8.23 6 11 6 C 12.641573 6 14.079708 6.7951359 14.990234 8.0097656 L 15.712891 7.2871094 C 14.616004 5.8947115 12.918061 5 11 5 z M 11 7 C 9.892 7 8.8929219 7.4469219 8.1699219 8.1699219 L 8.8769531 8.8769531 C 9.4192031 8.3347031 10.169 8 11 8 C 12.662 8 14 9.338 14 11 C 14 12.662 12.662 14 11 14 C 9.338 14 8 12.662 8 11 C 8 10.698149 8.0564772 10.413074 8.1386719 10.138672 L 7.3574219 9.3574219 C 7.1318349 9.8589963 7 10.412506 7 11 C 7 13.216 8.784 15 11 15 C 13.216 15 15 13.216 15 11 C 15 8.784 13.216 7 11 7 z "
     class="ColorScheme-Text"
     />
</svg>

<svg xmlns="http://www.w3.org/2000/svg" width="22" height="22" version="1.1">
 <defs>
  <style id="current-color-scheme" type="text/css">
   .ColorScheme-Text { color:#f8f8f2; } .ColorScheme-Highlight { color:#4285f4; } .ColorScheme-NeutralText { color:#ff9800; } .ColorScheme-PositiveText { color:#4caf50; } .ColorScheme-NegativeText { color:#f44336; }
  </style>
 </defs>
 <path style="fill:currentColor" class="ColorScheme-Text" d="m 11,4 a 7,7 0 0 0 -7,7 7,7 0 0 0 7,7 7,7 0 0 0 7,-7 7,7 0 0 0 -0.771484,-3.175781 L 15.710938,9.341797 A 5,5 0 0 1 16,11 5,5 0 0 1 11,16 5,5 0 0 1 6,11 5,5 0 0 1 11,6 5,5 0 0 1 14.994141,8 L 16.419922,6.5761719 A 7,7 0 0 0 11,4 Z m 0,3 C 9.892,7 8.8929219,7.446922 8.1699219,8.169922 L 8.8769531,8.876953 C 9.4192031,8.334703 10.169,8 11,8 c 1.662,0 3,1.338 3,3 0,1.662 -1.338,3 -3,3 -1.662,0 -3,-1.338 -3,-3 0,-0.30185 0.056502,-0.586928 0.1386719,-0.861328 l -0.78125,-0.78125 C 7.1318319,9.859002 7,10.41251 7,11 c 0,2.216 1.784,4 4,4 2.216,0 4,-1.784 4,-4 0,-2.216 -1.784,-4 -4,-4 z m 0,2 c -1.1045695,0 -2,0.895431 -2,2 0,1.10457 0.8954305,2 2,2 0.911645,-4.31e-4 1.707636,-0.617304 1.935547,-1.5 H 11.863281 C 11.68514,11.808554 11.356285,11.999022 11,12 c -0.552285,0 -1,-0.447715 -1,-1 0,-0.552285 0.447715,-1 1,-1 0.356983,2.82e-4 0.686743,0.190844 0.865234,0.5 h 1.06836 C 12.705865,9.618007 11.910917,9.00132 11,9 Z"/>
</svg>
